src/assets/images/connectors/walletconnect.svg

<svg width="100" height="62" viewBox="0 0 100 62" fill="none" xmlns="http://www.w3.org/2000/svg">
<path d="M20.4721 11.9751C36.7799 -3.99169 63.2202 -3.99169 79.528 11.9751L81.4907 13.8967C82.3061 14.695 82.3061 15.9894 81.4907 16.7877L74.7768 23.3612C74.3691 23.7604 73.7081 23.7604 73.3004 23.3612L70.5995 20.7168C59.2227 9.57802 40.7774 9.57802 29.4006 20.7168L26.5082 23.5487C26.1005 23.9479 25.4395 23.9479 25.0318 23.5487L18.3179 16.9753C17.5025 16.1769 17.5025 14.8826 18.3179 14.0842L20.4721 11.9751ZM93.4131 25.5697L99.3885 31.4202C100.204 32.2185 100.204 33.5129 99.3885 34.3112L72.445 60.6916C71.6296 61.4899 70.3076 61.4899 69.4922 60.6916C69.4922 60.6916 69.4922 60.6916 69.4921 60.6916L50.3693 41.9687C50.1654 41.7691 49.8349 41.7691 49.6311 41.9687C49.6311 41.9687 49.6311 41.9687 49.6311 41.9687L30.5086 60.6916C29.6932 61.4899 28.3712 61.4899 27.5558 60.6916C27.5558 60.6916 27.5558 60.6916 27.5558 60.6916L0.611544 34.3109C-0.203848 33.5125 -0.203848 32.2182 0.611544 31.4198L6.58696 25.5694C7.40235 24.7711 8.72436 24.7711 9.53976 25.5694L28.6629 44.2926C28.8667 44.4922 29.1973 44.4922 29.4011 44.2926C29.4011 44.2926 29.4011 44.2926 29.4011 44.2926L48.5233 25.5694C49.3387 24.771 50.6607 24.771 51.4761 25.5693C51.4761 25.5693 51.4761 25.5694 51.4761 25.5694L70.5992 44.2926C70.8031 44.4921 71.1336 44.4921 71.3374 44.2926L90.4603 25.5697C91.2757 24.7714 92.5977 24.7714 93.4131 25.5697Z" fill="#3B99FC"/>
</svg>

<svg width="100" height="62" fill="none" xmlns="http://www.w3.org/2000/svg"><path d="M20.472 11.975c16.308-15.967 42.748-15.967 59.056 0l1.963 1.922a2.014 2.014 0 0 1 0 2.89l-6.714 6.574c-.408.4-1.069.4-1.477 0l-2.7-2.644c-11.377-11.139-29.823-11.139-41.2 0l-2.892 2.832c-.407.399-1.069.399-1.476 0l-6.714-6.574a2.014 2.014 0 0 1 0-2.89l2.154-2.11ZM93.413 25.57l5.975 5.85a2.014 2.014 0 0 1 0 2.891l-26.943 26.38a2.12 2.12 0 0 1-2.953 0L50.37 41.97a.53.53 0 0 0-.738 0L30.51 60.692a2.12 2.12 0 0 1-2.953 0L.612 34.31a2.014 2.014 0 0 1 0-2.891l5.975-5.85a2.12 2.12 0 0 1 2.953 0l19.123 18.723c.204.2.534.2.738 0l19.122-18.724a2.12 2.12 0 0 1 2.953 0L70.6 44.293c.204.2.535.2.738 0L90.46 25.57a2.12 2.12 0 0 1 2.953 0Z" fill="#3B99FC"/></svg>
